packages/webapp/public/images/template-logos/ramp-sandbox.svg

<svg width="62" height="62" viewBox="0 0 62 62" fill="none" xmlns="http://www.w3.org/2000/svg">
<rect width="62" height="62" rx="10" fill="white"/>
<path d="M51.1784 47.463V47.617L28.9584 47.6236V47.463C32.1638 45.6524 34.3748 43.811 36.3658 41.8838H45.4892L51.1784 47.463ZM45.674 18.522L40.042 13H39.877C39.877 13 39.9716 23.296 30.516 32.6592C21.2628 41.8244 10.3816 41.8442 10.3816 41.8442V42.0048L16.1192 47.6258C16.1192 47.6258 26.842 47.7314 36.3152 38.4408C45.7532 29.1788 45.674 18.522 45.674 18.522Z" fill="black"/>
</svg>

<svg xmlns="http://www.w3.org/2000/svg" width="62" height="62" fill="none"><rect width="62" height="62" rx="31" fill="#fff"/><path d="M51.178 47.463v.154l-22.22.007v-.161c3.205-1.811 5.416-3.652 7.407-5.579h9.123l5.689 5.579zm-5.504-28.941L40.042 13h-.165s.095 10.296-9.361 19.659c-9.253 9.165-20.134 9.185-20.134 9.185v.161l5.738 5.621s10.723.106 20.196-9.185c9.438-9.262 9.359-19.919 9.359-19.919z" fill="#000"/></svg>
